X:1
T:The Bonny Lass of Anglesey
M:4/4
L:1/4
K:D
A/2-B/2 d| f3/2 g/2f/2-e/2 d| a2 f e/2d/2| e e/2e/2 e d| f e d- B|\
A/2-B/2 d
M:4/4
| f3/2 g/2f/2-e/2 d| a3/2 a/2f/2-e/2 d| e- f/2g/2 f e| d2|
